src/helpers/heroicons/solid/flag.svg

<svg width="24" height="24" viewBox="0 0 24 24" fill="none" xmlns="http://www.w3.org/2000/svg">
<path fill-rule="evenodd" clip-rule="evenodd" d="M3 2.25C3.41421 2.25 3.75 2.58579 3.75 3V3.53942L5.58819 3.07987C7.84613 2.51539 10.2315 2.77724 12.3132 3.8181L12.421 3.87196C14.1472 4.73507 16.1214 4.96567 18.0001 4.52363L21.1096 3.79196C21.3465 3.73622 21.5958 3.79888 21.7781 3.96005C21.9605 4.12121 22.0533 4.36083 22.0271 4.60278C21.844 6.29313 21.75 8.01046 21.75 9.75C21.75 11.504 21.8455 13.2355 22.0317 14.9395C22.0728 15.3161 21.8266 15.6642 21.4579 15.751L18.3436 16.4837C16.1234 17.0062 13.7902 16.7336 11.7501 15.7136L11.6424 15.6597C9.88097 14.779 7.86256 14.5574 5.95199 15.0351L3.75 15.5856V21C3.75 21.4142 3.41421 21.75 3 21.75C2.58579 21.75 2.25 21.4142 2.25 21V3C2.25 2.58579 2.58579 2.25 3 2.25Z" />
</svg>

<svg xmlns="http://www.w3.org/2000/svg" viewBox="0 0 24 24" fill="currentColor" aria-hidden="true" data-slot="icon">
  <path fill-rule="evenodd" d="M3 2.25a.75.75 0 0 1 .75.75v.54l1.838-.46a9.75 9.75 0 0 1 6.725.738l.108.054A8.25 8.25 0 0 0 18 4.524l3.11-.732a.75.75 0 0 1 .917.81 47.784 47.784 0 0 0 .005 10.337.75.75 0 0 1-.574.812l-3.114.733a9.75 9.75 0 0 1-6.594-.77l-.108-.054a8.25 8.25 0 0 0-5.69-.625l-2.202.55V21a.75.75 0 0 1-1.5 0V3A.75.75 0 0 1 3 2.25Z" clip-rule="evenodd"/>
</svg>
